X:248
T:Oswestry Wake
R:jig 48
C:Trad. ed. Barry Callaghan
S:'Hard Core English' page 74A
O:England
A:Welsh marches
B:Hard Core English ISBN 978 085418 201 5
Z:PJHeadford 2008
M:6/8
L:1/8
Q:1/4=140
K:G
|:d|efg f2e|dcB A2G|gfe f2g|a3- a2d|\
efg f2e|dcB ABc|BGB AFA|G3- G2:|
|:A|B>cd ded|dBG dBG|A>BA c2d|e3 edc|\
Bcd def|g3 d3|BGE AFD|G3- G2:|
|:e/f/|gdB gdB|gdB A2G|gfe f2g|a3- a2f|\
gba gfe|fag fed|egB A2G|G3- G2:|]
W:Playford 1718, Walsh 1719. Usual known as Oswestry Wakes.

